client/src/assets/images/icon-health-center-blue.svg

<svg fill="none" height="51" viewBox="0 0 50 51" width="50" xmlns="http://www.w3.org/2000/svg"><path d="m26.4894 1.4325v.00002l.0054.00381 21.9018 15.63847c.2543.2061.4408.4842.5348.798.0961.3207.0911.6632-.0143.9809-.1055.3177-.3062.5952-.575.7947-.2655.1972-.5847.3089-.915.3203h-4.0298-1v1 26.2923c0 .2512-.0494.4999-.1455.7319-.0962.232-.237.4428-.4146.6204s-.3884.3184-.6204.4146c-.232.0961-.4807.1455-.7319.1455h-30.86311-.00713l-.00713.0001c-.50271.0072-.98802-.1839-1.3509-.5318-.3599-.3451-.57065-.817-.58767-1.3151v-26.277-1h-1-4.04297c-.00029 0-.00057 0-.00085 0-.34501-.0009-.68084-.1112-.9591-.3152-.2785-.2041-.48494-.4915-.58952-.8206s-.101901-.6829.00765-1.0103l-.948333-.3173.948333.3173c.10949-.3273.32006-.6113.60136-.8112.00017-.0001.00034-.0002.00051-.0004l22.12466-15.65306v.00005l.0089-.00639c.3883-.28114.8555-.4325 1.3349-.4325s.9466.15136 1.3349.4325zm8.3528 33.197h.9969l.0031-.9969.0202-6.4517.0032-1.0032h-1.0032-5.5326v-5.4719-1h-1-6.5529-1v1 5.4719h-5.5528-1v1 6.4518 1h1 5.5528v5.4517 1h1 6.5529 1v-1-5.4517z" stroke="#06b9ff" stroke-width="2"/></svg>

<svg width="50" height="51" viewBox="0 0 50 51" fill="none" xmlns="http://www.w3.org/2000/svg">
<path d="M26.4894 1.4325L26.4894 1.43252L26.4948 1.43633L48.3966 17.0748C48.6509 17.2809 48.8374 17.559 48.9314 17.8728C49.0275 18.1935 49.0225 18.536 48.9171 18.8537C48.8116 19.1714 48.6109 19.4489 48.3421 19.6484C48.0766 19.8456 47.7574 19.9573 47.4271 19.9687H43.3973H42.3973V20.9687V47.261C42.3973 47.5122 42.3479 47.7609 42.2518 47.9929C42.1556 48.2249 42.0148 48.4357 41.8372 48.6133C41.6596 48.7909 41.4488 48.9317 41.2168 49.0279C40.9848 49.124 40.7361 49.1734 40.4849 49.1734H9.62179H9.61466L9.60753 49.1735C9.10482 49.1807 8.61951 48.9896 8.25663 48.6417C7.89673 48.2966 7.68598 47.8247 7.66896 47.3266V21.0496V20.0496H6.66896L2.62599 20.0496C2.6257 20.0496 2.62542 20.0496 2.62514 20.0496C2.28013 20.0487 1.9443 19.9384 1.66604 19.7344C1.38754 19.5303 1.1811 19.2429 1.07652 18.9138C0.97194 18.5847 0.974619 18.2309 1.08417 17.9035L0.135837 17.5862L1.08417 17.9035C1.19366 17.5762 1.40423 17.2922 1.68553 17.0923C1.6857 17.0922 1.68587 17.0921 1.68604 17.0919L23.8107 1.43884L23.8107 1.43889L23.8196 1.4325C24.2079 1.15136 24.6751 1 25.1545 1C25.6339 1 26.1011 1.15136 26.4894 1.4325ZM34.8422 34.6295H35.8391L35.8422 33.6326L35.8624 27.1809L35.8656 26.1777H34.8624H29.3298V20.7058V19.7058H28.3298H21.7769H20.7769V20.7058V26.1777H15.2241H14.2241V27.1777V33.6295V34.6295H15.2241H20.7769V40.0812V41.0812H21.7769H28.3298H29.3298V40.0812V34.6295H34.8422Z" stroke="#06B9FF" stroke-width="2"/>
</svg>
